src/lib/packages/icons/src/assets/line/telegram.svg

<svg width="24" height="24" viewBox="0 0 24 24" fill="none" xmlns="http://www.w3.org/2000/svg">
<path d="M21.6999 5.5101C21.6699 5.3701 21.5999 4.9401 21.1999 4.6101C20.7699 4.2601 20.2299 4.2401 20.0699 4.2501C19.3299 4.2601 18.4899 4.54011 13.6099 6.58011C12.0099 7.25011 8.74993 8.66011 3.93993 10.7701C3.19993 11.0701 2.34993 11.5101 2.24993 12.2901C2.10993 13.4201 3.25993 13.7801 4.18993 14.0801L4.54992 14.1901C5.26992 14.4301 6.58993 14.8201 7.33993 14.8401C8.04993 14.8601 8.77992 14.5901 9.57992 14.0401C10.7799 13.2301 11.7699 12.5601 12.5999 12.0001C12.4699 12.1201 12.3499 12.2401 12.2499 12.3301C11.8299 12.7301 11.5299 13.0101 11.4699 13.0701C11.3499 13.2001 11.2199 13.3201 11.0999 13.4401C10.5499 13.9701 9.98993 14.5201 10.0599 15.3101C10.1299 16.0601 10.7699 16.5601 11.2399 16.8701C11.9199 17.3201 12.4699 17.7001 13.0099 18.0701C13.5899 18.4701 14.1799 18.8701 14.9399 19.3701C15.1299 19.4901 15.2999 19.6201 15.4799 19.7401C16.1699 20.2401 16.8899 20.7501 17.8199 20.7501C17.8999 20.7501 17.9699 20.7501 18.0499 20.7401C18.6899 20.6801 19.5199 20.2301 19.8499 18.4201C20.3799 15.5701 21.4799 9.11011 21.7399 6.38011C21.7699 6.07011 21.7399 5.70011 21.7099 5.52011L21.6999 5.5101ZM20.2399 6.2301C19.9899 8.8901 18.8799 15.4101 18.3699 18.1501C18.2099 19.0401 17.9499 19.2401 17.9099 19.2501C17.4599 19.2801 17.0199 19.0001 16.3499 18.5201C16.1599 18.3901 15.9699 18.2501 15.7699 18.1101C15.0199 17.6201 14.4399 17.2201 13.8699 16.8201C13.3199 16.4401 12.7699 16.0701 12.0799 15.6101C11.6599 15.3301 11.5799 15.1801 11.5599 15.1801C11.5999 15.0401 11.9299 14.7201 12.1499 14.5101C12.2799 14.3801 12.4199 14.2501 12.5599 14.1001C12.6199 14.0301 12.8999 13.7801 13.2799 13.4201C17.1999 9.7601 17.2399 9.5901 17.3099 9.2601C17.3699 8.9701 17.3299 8.5301 16.9999 8.2501C16.6199 7.9001 16.1399 8.0001 15.9899 8.0401C15.7699 8.0901 15.6399 8.12011 8.73992 12.8001C8.21992 13.1601 7.78993 13.3601 7.37993 13.3301C6.98993 13.3301 6.07992 13.1001 5.01992 12.7501L4.64992 12.6301C4.42992 12.5601 4.16992 12.4801 3.95992 12.4001C4.07992 12.3301 4.25994 12.2501 4.50994 12.1501C4.50994 12.1501 4.51993 12.1501 4.52993 12.1501C9.33993 10.0501 12.5799 8.6401 14.1799 7.9701C18.3599 6.2201 19.5799 5.7701 20.0899 5.7601C20.0899 5.7601 20.1999 5.77011 20.2099 5.77011C20.2299 5.88011 20.2399 6.10011 20.2299 6.24011L20.2399 6.2301Z" fill="currentColor"/>
</svg>

<svg xmlns="http://www.w3.org/2000/svg" width="24" height="24" fill="none"><path fill="currentColor" d="M21.7 5.51c-.03-.14-.1-.57-.5-.9-.43-.35-.97-.37-1.13-.36-.74.01-1.58.29-6.46 2.33-1.6.67-4.86 2.08-9.67 4.19-.74.3-1.59.74-1.69 1.52-.14 1.13 1.01 1.49 1.94 1.79l.36.11c.72.24 2.04.63 2.79.65.71.02 1.44-.25 2.24-.8L12.6 12c-.13.12-.25.24-.35.33-.42.4-.72.68-.78.74-.12.13-.25.25-.37.37-.55.53-1.11 1.08-1.04 1.87.07.75.71 1.25 1.18 1.56.68.45 1.23.83 1.77 1.2.58.4 1.17.8 1.93 1.3.19.12.36.25.54.37.69.5 1.41 1.01 2.34 1.01.08 0 .15 0 .23-.01.64-.06 1.47-.51 1.8-2.32.53-2.85 1.63-9.31 1.89-12.04.03-.31 0-.68-.03-.86l-.01-.01Zm-1.46.72c-.25 2.66-1.36 9.18-1.87 11.92-.16.89-.42 1.09-.46 1.1-.45.03-.89-.25-1.56-.73-.19-.13-.38-.27-.58-.41-.75-.49-1.33-.89-1.9-1.29-.55-.38-1.1-.75-1.79-1.21-.42-.28-.5-.43-.52-.43.04-.14.37-.46.59-.67.13-.13.27-.26.41-.41.06-.07.34-.32.72-.68 3.92-3.66 3.96-3.83 4.03-4.16.06-.29.02-.73-.31-1.01-.38-.35-.86-.25-1.01-.21-.22.05-.35.08-7.25 4.76-.52.36-.95.56-1.36.53-.39 0-1.3-.23-2.36-.58l-.37-.12c-.22-.07-.48-.15-.69-.23.12-.07.3-.15.55-.25h.02c4.81-2.1 8.05-3.51 9.65-4.18 4.18-1.75 5.4-2.2 5.91-2.21l.12.01c.02.11.03.33.02.47l.01-.01Z"/></svg>
